X: 4
T: The Humours Of Tullycrine
R: hornpipe
M: 4/4
L: 1/8
K: Ador
|:E|AGAB cBcd|eaag e2dB|c2Ac BAGA|Bdde dBAG|AGAB cBcd|eaag egdB|c2Ac BAGB|1ABAG A3:|2A2AG A2(3Bcd|||:eaab aged|eaab aged|egga (3gag ed2|dgga gedB|A2AB cbcd|eaag egdB|c2Ac BAGB|1ABAG A2(3Bcd:|2A2AG A3||


Tune 980	Setting 30049

